X: 7254
T: Clare Island Boat Song, The
R: jig
M: 6/8
K: Edorian
|:A|Bee dBB|AFA B2A|Bee dBB|AFD E2A|
Bee dBB|AFA B2A|ABc dcB|AFD E2:|
F|A2F B2F|Adc B2F|A2F B2F|AFD EFG|
A2F B2F|Adc B2A|ABc dcB|AFD E2||

